X:181
T: Nuan xiao zhu
N: C0303
O: China,Shandong, Xiajin
S: III, 332]
N: Aehnlich dem Moli Hua? Die Kinder haben hier ihr eigenes Schauspiel.
R: Xiaodiao, Erge. Xin minge]
M: 2/4
L: 1/8
K: C
G2GE | G2GE | G2cE | D2
DC | D2DC | D2DC | DzDz | Dz3 |
G2GE | G2GE | D2G2 | C2
CA, | C2CA, | C2CA, | CzCz | Cz3 |
A2AG | A2AG | AGAc | cEG2 |
GFG2 | GFG2 | GFG2 | GzGz |
A2Ac | A2Ac | e2ed | c2
cB | c2cB | c2cB | czcz | cz3

@@@ Tune index: 6182
